X:229
T:Reel 229
M:4/4
K:Dmaj
L:1/8
A>G (3FEF A>F (3BEF | (3BcB A>F  (3FEF A2|B>E (3EEE B>E (3EEE |B>E (3EEE B>E (3EEE |d>c (3cBA B>D (3FEF |B>E (3EEE B>E (3EDE |B>E (3EEE B>E (3EEE |E>D (3DDD D2:|F2|A>E (3EEE B>E (3EEE |E>E (3EEE B>E (3EEE |A>E (3EEE B>E (3EEE |B2 (3Bcd A2c2|B>E (3EEE B>E (3EEE |B2 (3GFE B2A2|B>E (3EEE B>E (3EEE |BA (3EDD D2:|
